X:1
T:Title
%%score ( 1 2 ) ( 3 4 )
L:1/8
Q:1/4=90
M:4/4
K:G
V:1 treble nm="Strings 1, Treble"
V:2 treble 
V:3 bass nm="Strings 1, Bass"
V:4 bass 
V:1
 z4 z2 [B,G][CA] | [DB]2 [Dd]2 cAGF | [DG]6 [GB][GB] | [Fc]2 [GB]2 [DA]2 [EG]2 | [FA]6 [DB][Ec] | %5
w: 1.~When~ the~|earth~ shall~ cease~ * to~ *|be,~ And~ the~|heav ens~ pass~ a|way,~ The~ un|
 [Dd]2 [DB]2 GFGA | [DB]2 [Dc]2 [=Fd]2 [Ec]2 | [DB]3 [DA] [DG]2 [DF]2 | [DG]6 [GB][Ac] | %9
w: chang ing~ word~ * of~ *|God~ we'll~ see~ Just~|as~ it~ is~ to|day.~ * *|
 [Bd]2 [Bd]2 [ce][Bd][Ac][GB] | [Ac]2 [Fc]2 [Fc]2 [FA][GB] | [Ac]2 [Ac]2 [Bd][Ac][GB][DA] | %12
w: |||
 [GB]2 [GB]2 [GB]2 DD | [DG]2 [DG]2 [DB]2 [DG]2 | [DA]2 [=FB]2 c-[Gc][Q:1/4=90] [Ge]2[Q:1/4=12] | %15
w: |||
 [Gd]3 [DG] BAGF | [DG]6 z2 |] %17
w: ||
V:2
 x8 | z4 E2 D2 | x8 | x8 | x8 | z4 D2 D2 | x8 | x8 | x8 | x8 | x8 | x8 | x8 | x8 | z4 .E2 z2 | %15
 z4 D2 D2 | x8 |] %17
V:3
 z4 z2 G,G, | [D,G,]2 [B,,G,]2 C,-[C,C]B,A, | [G,,B,]6 [G,D][G,D] | [A,D]2 [G,D]2 [F,D]2 [E,^C]2 | %4
 [D,D]6 G,[G,A,] | [G,B,]2 G,2 [D,B,][C,A,][B,,G,][A,,F,] | [G,,G,]2 [A,,F,]2 [B,,G,]2 [C,G,]2 | %7
 [D,G,]3 [D,C] [D,B,]2 [D,A,]2 | [G,,G,B,]6 G,G, | G,2 G,2 G,2 G,2 | %10
 [D,F,]2 [D,A,]2 [D,A,]2 [D,D][D,D] | [D,D]2 [D,D]2 [D,D]2 D-[F,D] | %12
 [G,D]2 [D,D]2 [G,,D]2 [G,,B,][G,,B,] | [G,,B,]2 [G,,B,]2 [G,,G,]2 [G,B,]2 | %14
 [D,C]2 [G,D]2 [C,E]2 [C,C]2 | [D,B,]3 [D,B,] DCB,A, | [G,,G,B,]6 z2 |] %17
V:4
 x8 | z4 .G,2 D,2 | x8 | x8 | x8 | x8 | x8 | x8 | x8 | x8 | x8 | z4 z2 .E,2 | x8 | x8 | x8 | %15
 z4 D,2 D,2 | x8 |] %17

